icons/svgs/play-circle-solid.svg

<svg width="24" height="24" viewBox="0 0 24 24" fill="none" xmlns="http://www.w3.org/2000/svg">
<path d="M2 12C2 8.44531 3.875 5.16406 7 3.36719C10.0859 1.57031 13.875 1.57031 17 3.36719C20.0859 5.16406 22 8.44531 22 12C22 15.5938 20.0859 18.875 17 20.6719C13.875 22.4688 10.0859 22.4688 7 20.6719C3.875 18.875 2 15.5938 2 12ZM9.34375 7.78125C9.03125 7.9375 8.875 8.25 8.875 8.5625V15.4375C8.875 15.7891 9.03125 16.1016 9.34375 16.2578C9.61719 16.4531 10.0078 16.4141 10.2812 16.2578L15.9062 12.8203C16.1797 12.625 16.375 12.3516 16.375 12C16.375 11.6875 16.1797 11.375 15.9062 11.2188L10.2812 7.78125C10.0078 7.58594 9.61719 7.58594 9.34375 7.74219V7.78125Z" fill="black"/>
</svg>

<svg xmlns="http://www.w3.org/2000/svg" width="24" height="24" fill="currentColor" class="icon-play-circle-solid" viewBox="0 0 24 24">
  <mask id="a" width="20" height="21" x="2" y="2" maskUnits="userSpaceOnUse" style="mask-type:alpha">
    <path d="M2 12a9.93 9.93 0 0 1 5-8.633c3.086-1.797 6.875-1.797 10 0 3.086 1.797 5 5.078 5 8.633 0 3.594-1.914 6.875-5 8.672-3.125 1.797-6.914 1.797-10 0C3.875 18.875 2 15.594 2 12m7.344-4.219a.86.86 0 0 0-.469.782v6.874c0 .352.156.665.469.82.273.196.664.157.937 0l5.625-3.437c.274-.195.469-.468.469-.82a.94.94 0 0 0-.469-.781L10.281 7.78a.9.9 0 0 0-.937-.039z"/>
  </mask>
  <g mask="url(#a)">
    <path d="M0 0h24v24H0z"/>
  </g>
</svg>
